JSt/static/bug.svg

<svg width="32" height="32" viewBox="0 0 32 32" fill="none" xmlns="http://www.w3.org/2000/svg">
<g clip-path="url(#clip0_205_2)">
<path d="M-0.0814365 10.7248C0.0436545 10.4913 0.256265 10.317 0.509736 10.2401C0.763207 10.1632 1.03683 10.19 1.27055 10.3146L3.03408 11.2551C3.43197 9.35655 4.3757 7.61556 5.74937 6.24595C7.17348 4.82183 8.92286 3.91532 10.7585 3.53066L9.81664 1.76855C9.75359 1.65267 9.71409 1.52546 9.70042 1.39424C9.68675 1.26303 9.69918 1.13041 9.73698 1.00402C9.77479 0.877633 9.83723 0.759973 9.92071 0.657822C10.0042 0.555671 10.1071 0.471047 10.2234 0.408826C10.3397 0.346604 10.4672 0.308015 10.5985 0.29528C10.7298 0.282546 10.8623 0.295918 10.9885 0.334627C11.1146 0.373336 11.2318 0.436617 11.3333 0.520823C11.4349 0.60503 11.5188 0.708499 11.5802 0.825268L12.9124 3.31711C15.5333 3.33807 18.0405 4.39025 19.8915 6.24595L20.5986 5.53884C20.7861 5.3513 20.8915 5.09695 20.8915 4.83173C20.8915 4.56652 20.7861 4.31216 20.5986 4.12463L19.8915 3.41752C19.704 3.22998 19.5986 2.97563 19.5986 2.71041C19.5986 2.4452 19.704 2.19084 19.8915 2.00331C20.079 1.81577 20.3334 1.71041 20.5986 1.71041C20.8638 1.71041 21.1182 1.81577 21.3057 2.00331L22.0128 2.71041C22.5754 3.27302 22.8915 4.03608 22.8915 4.83173C22.8915 5.62738 22.5754 6.39045 22.0128 6.95305L21.3057 7.66016L22.7199 9.07437L24.8412 6.95305C25.0288 6.76552 25.2831 6.66016 25.5484 6.66016C25.8136 6.66016 26.0679 6.76552 26.2555 6.95305C26.443 7.14059 26.5484 7.39494 26.5484 7.66016C26.5484 7.92538 26.443 8.17973 26.2555 8.36727L24.1341 10.4886L25.5484 11.9028L26.2555 11.1957C26.8181 10.6331 27.5811 10.317 28.3768 10.317C29.1724 10.317 29.9355 10.6331 30.4981 11.1957L31.2052 11.9028C31.3927 12.0903 31.4981 12.3447 31.4981 12.6099C31.4981 12.8751 31.3927 13.1295 31.2052 13.317C31.0177 13.5046 30.7633 13.6099 30.4981 13.6099C30.2329 13.6099 29.9785 13.5046 29.791 13.317L29.0839 12.6099C28.8964 12.4224 28.642 12.317 28.3768 12.317C28.1116 12.317 27.8572 12.4224 27.6697 12.6099L26.9626 13.317C28.8379 15.1924 29.8915 17.7359 29.8915 20.3881C29.8915 23.0402 28.8379 25.5838 26.9626 27.4591C25.0872 29.3345 22.5437 30.3881 19.8915 30.3881C17.2393 30.3881 14.6958 29.3345 12.8204 27.4591L12.1133 28.1663C11.9258 28.3538 11.8204 28.6081 11.8204 28.8734C11.8204 29.1386 11.9258 29.3929 12.1133 29.5805L12.8204 30.2876C13.008 30.4751 13.1133 30.7295 13.1133 30.9947C13.1133 31.2599 13.008 31.5143 12.8204 31.7018C12.6329 31.8893 12.3785 31.9947 12.1133 31.9947C11.8481 31.9947 11.5938 31.8893 11.4062 31.7018L10.6991 30.9947C10.1365 30.4321 9.82043 29.669 9.82043 28.8734C9.82043 28.0777 10.1365 27.3147 10.6991 26.752L11.4062 26.0449L9.99201 24.6307L7.87069 26.752C7.68315 26.9396 7.4288 27.0449 7.16358 27.0449C6.89836 27.0449 6.64401 26.9396 6.45647 26.752C6.26894 26.5645 6.16358 26.3102 6.16358 26.0449C6.16358 25.7797 6.26894 25.5254 6.45647 25.3378L8.57779 23.2165L7.16358 21.8023L6.45647 22.5094C5.89386 23.072 5.1308 23.3881 4.33515 23.3881C3.5395 23.3881 2.77644 23.072 2.21383 22.5094L1.50673 21.8023C1.31919 21.6148 1.21383 21.3604 1.21383 21.0952C1.21383 20.83 1.31919 20.5756 1.50673 20.3881C1.69426 20.2005 1.94862 20.0952 2.21383 20.0952C2.47905 20.0952 2.7334 20.2005 2.92094 20.3881L3.62805 21.0952C3.81558 21.2827 4.06994 21.3881 4.33515 21.3881C4.60037 21.3881 4.85472 21.2827 5.04226 21.0952L5.74937 20.3881C3.82038 18.4591 2.84457 15.9361 2.82053 13.4089L0.328685 12.0767C0.0952078 11.9517 -0.0791028 11.739 -0.155992 11.4856C-0.232882 11.2321 -0.206069 10.9585 -0.0814365 10.7248V10.7248ZM8.57779 20.3881L14.2346 26.0449C15.6123 27.4236 17.4459 28.2518 19.3911 28.3742C21.3363 28.4966 23.2592 27.9047 24.7988 26.7096L13.5275 15.4383L8.57779 20.3881ZM14.9418 14.0241L26.213 25.2954C27.4081 23.7558 28 21.8328 27.8777 19.8877C27.7553 17.9425 26.927 16.1089 25.5484 14.7312L19.8915 9.07437L14.9418 14.0241ZM18.4773 7.66016C17.682 6.86292 16.7269 6.24306 15.6749 5.84137C14.6229 5.43968 13.4978 5.26524 12.3735 5.32954C10.4086 5.43625 8.55276 6.26646 7.16358 7.66016C5.76904 9.04948 4.93829 10.9059 4.83154 12.8715C4.76763 13.9957 4.94239 15.1206 5.34432 16.1723C5.74626 17.2241 6.36626 18.1789 7.16358 18.9739L18.4773 7.66016Z" fill="black"/>
</g>
<defs>
<clipPath id="clip0_205_2">
<rect width="32" height="32" fill="white"/>
</clipPath>
</defs>
</svg>

<svg width="32" height="32" fill="none" xmlns="http://www.w3.org/2000/svg"><g clip-path="url(#a)"><path d="M-.0814 10.7248a1 1 0 0 1 1.352-.4102l1.7635.9405a9.9579 9.9579 0 0 1 2.7153-5.0092c1.424-1.424 3.1735-2.3306 5.0091-2.7152l-.9419-1.7621a1 1 0 1 1 1.7636-.9433l1.3322 2.4918a9.97 9.97 0 0 1 6.9791 2.9288l.7071-.707a1.0002 1.0002 0 0 0 0-1.4143l-.7071-.707a1.0002 1.0002 0 0 1 .7071-1.7072 1 1 0 0 1 .7071.293l.7071.707a3 3 0 0 1 0 4.2426l-.7071.7072 1.4142 1.4142 2.1213-2.1214a1.0002 1.0002 0 0 1 1.7072.7072.9999.9999 0 0 1-.2929.707l-2.1214 2.1214 1.4143 1.4142.7071-.7071a3 3 0 0 1 4.2426 0l.7071.7071a1.0001 1.0001 0 0 1-1.4142 1.4142l-.7071-.7071a1.0001 1.0001 0 0 0-1.4142 0l-.7071.7071a10.0003 10.0003 0 0 1 0 14.1421 10 10 0 0 1-14.1422 0l-.7071.7072a1 1 0 0 0 0 1.4142l.7071.7071a.9997.9997 0 0 1 0 1.4142 1.0001 1.0001 0 0 1-1.4142 0l-.7071-.7071a3 3 0 0 1 0-4.2427l.7071-.7071-1.4142-1.4142-2.1213 2.1213a.9997.9997 0 0 1-1.4142 0 .9998.9998 0 0 1 0-1.4142l2.1213-2.1213-1.4142-1.4142-.7071.7071a3 3 0 0 1-4.2427 0l-.707-.7071a1 1 0 1 1 1.4141-1.4142l.7071.7071a1.0001 1.0001 0 0 0 1.4143 0l.707-.7071c-1.929-1.929-2.9047-4.452-2.9288-6.9792L.3287 12.0767a.9998.9998 0 0 1-.4101-1.3519Zm8.6592 9.6633 5.6568 5.6568a7.9998 7.9998 0 0 0 10.5642.6647L13.5275 15.4383l-4.9497 4.9498Zm6.364-6.364L26.213 25.2954a8.0004 8.0004 0 0 0-.6646-10.5642l-5.6569-5.6568-4.9497 4.9497Zm3.5355-6.364a7.9784 7.9784 0 0 0-6.1038-2.3306 7.9659 7.9659 0 0 0-5.21 2.3307 7.966 7.966 0 0 0-2.332 5.2113 7.9777 7.9777 0 0 0 2.332 6.1024L18.4774 7.6602Z" fill="#000"/></g><defs><clipPath id="a"><path fill="#fff" d="M0 0h32v32H0z"/></clipPath></defs></svg>
